Speka/assets/images/Logo_Speka.svg

<svg width="147" height="60" viewBox="0 0 147 60" fill="none" xmlns="http://www.w3.org/2000/svg">
<path fill-rule="evenodd" clip-rule="evenodd" d="M12.5984 5.12614C13.4044 5.6666 14.2357 6.18962 15.0587 6.70393C15.0078 6.90442 14.9145 7.08745 14.9993 7.2182C15.152 7.38383 15.3811 7.23566 15.6611 7.29668C15.8477 7.34027 16.7894 8.31656 16.976 8.48219C17.4002 8.41245 17.4596 8.38628 17.4935 8.02888C17.519 7.75866 17.5275 7.47104 17.536 7.20081C18.2571 7.02646 19.3261 6.83467 20.1321 6.68648C20.5138 6.61674 22.6009 6.1896 22.7111 6.19832C22.9826 6.20704 24.1789 6.9654 24.2637 7.3751C24.4588 8.28168 24.5606 9.24928 24.7473 10.1646C25.5363 10.0164 25.7484 9.87691 25.952 9.01392L26.724 5.90192C26.987 4.93432 26.8258 4.81229 27.267 4.65538C28.7516 4.08006 30.4824 3.26067 31.9501 2.38024C32.7136 1.82235 32.8663 1.5957 32.8579 1.28188C32.7985 0.941919 32.7306 0.750178 32.3743 0.663007C32.1961 0.619422 31.984 0.610681 31.7719 0.58453C31.3392 0.532228 31.0084 0.36662 30.6011 0.384054C29.6509 0.410206 29.2098 0.915774 28.1069 1.34291L25.6126 2.31049C25.3496 2.36279 14.1085 0.000501375 13.9728 0.000501375C13.6504 -0.00821569 13.5486 0.0964019 13.311 0.34048C13.2262 0.445084 13.1414 0.540968 13.082 0.663007C13.4298 0.898368 18.0281 2.73762 18.8171 3.06887C19.0377 3.15604 20.2933 4.00164 20.4545 4.20213C20.1321 4.33289 19.3346 4.7164 19.0037 4.86459C18.2401 5.16097 18.1638 5.32662 17.6293 4.83846C17.4427 4.66412 17.2984 4.54206 17.1033 4.38516C16.1192 3.61806 16.0344 3.53087 15.2114 3.77495L15.6271 5.37892C14.9654 5.35276 13.9219 4.67284 13.1753 4.73386C12.9293 4.7513 12.7681 4.93436 12.5984 5.12614Z" fill="#F58220"/>
<path fill-rule="evenodd" clip-rule="evenodd" d="M132.56 11.9167L121.396 41.6332H118.121L131.322 6.48599H133.808L147 41.6332H143.725L132.56 11.9167Z" fill="#F58220"/>
<path fill-rule="evenodd" clip-rule="evenodd" d="M99.3714 25.6112H92.8643V41.6332H89.7847V6.48599H92.8643V22.4557H99.3036L110.078 6.48599H113.836L102.027 23.9898L115.236 41.6332H111.359L99.3714 25.6112Z" fill="#F58220"/>
<path fill-rule="evenodd" clip-rule="evenodd" d="M60.3372 38.4689H83.549V41.6332H60.3372V38.4689Z" fill="#F58220"/>
<path fill-rule="evenodd" clip-rule="evenodd" d="M81.8099 22.4992V25.6112H60.3372V22.4992H81.8099Z" fill="#F58220"/>
<path fill-rule="evenodd" clip-rule="evenodd" d="M83.2606 6.48599V9.64157H60.3372V6.48599H83.2606Z" fill="#F58220"/>
<path fill-rule="evenodd" clip-rule="evenodd" d="M35.3522 28.5488V41.6332H32.3235V25.3846H44.7439C49.3336 25.3846 52.9647 22.412 52.9647 17.513C52.9647 12.5181 49.4355 9.58923 44.7439 9.58923H32.3235V6.47723H44.7439C51.0474 6.47723 56.1801 10.8096 56.1801 17.513C56.1801 24.2513 51.0813 28.5488 44.7439 28.5488H35.3522Z" fill="#F58220"/>
<path fill-rule="evenodd" clip-rule="evenodd" d="M13.6506 22.3772C17.6889 23.3273 24.1451 25.0446 25.4771 29.6908C25.6892 30.4405 25.774 31.2163 25.774 31.9921C25.774 34.398 24.8238 36.7691 23.2034 38.495C20.7007 41.1712 17.0356 42.008 13.5403 42.008C13.2264 42.008 12.9125 42.008 12.6071 42.008H11.4617L12.9549 38.8437H13.4046C13.4555 38.8437 13.4979 38.8437 13.5488 38.8437C17.7313 38.8437 22.7113 37.0829 22.7113 31.9834C22.7113 31.1553 22.5077 30.3795 22.0751 29.6734C20.4037 26.9624 15.8225 26.0645 12.9804 25.4369C11.2412 25.0533 9.502 24.6175 7.83916 23.9898C4.31836 22.6561 0.992676 20.3723 0.992676 16.1096C0.992676 10.5917 5.13276 7.04386 10.1807 6.29419L10.4776 6.25062L14.4226 9.27547L12.2847 9.29287C8.23789 9.31902 4.02142 11.4111 4.02142 16.1096C4.02142 16.807 4.18259 17.4695 4.53043 18.071C6.0745 20.8343 10.8594 21.7234 13.6506 22.3772Z" fill="#F58220"/>
<path fill-rule="evenodd" clip-rule="evenodd" d="M3.13055 32.8464C3.75835 35.0257 5.43818 36.6209 7.38946 37.5885L8.04274 37.911L6.71926 40.7266L6.06598 40.4128C3.35963 39.114 1.09446 36.7778 0.203656 33.8053L0 33.1166L2.91845 32.1142L3.13055 32.8464Z" fill="#F58220"/>
<path fill-rule="evenodd" clip-rule="evenodd" d="M129.701 28.3833V25.2713H135.428V28.3833H129.701Z" fill="#F58220"/>
<path fill-rule="evenodd" clip-rule="evenodd" d="M145.804 57.6115H146.881V50.8035H144.811C144.285 50.8035 143.776 50.943 143.377 51.3178C142.97 51.6927 142.817 52.2069 142.817 52.7561C142.817 53.2355 142.97 53.6627 143.301 54.0114C143.547 54.2642 143.844 54.4385 144.175 54.5344L144.336 54.578L142.393 57.6115H143.589L145.422 54.6913H145.804V57.6115ZM145.804 51.7972V53.6976H145.388C145.227 53.6976 145.074 53.6976 144.921 53.6976C144.76 53.6888 144.599 53.6801 144.438 53.6453C144.277 53.6104 144.149 53.4971 144.048 53.3663C143.912 53.2007 143.869 53.0002 143.869 52.791C143.869 52.5905 143.895 52.3639 144.005 52.1982C144.098 52.0588 144.217 51.9541 144.37 51.9018C144.523 51.8408 144.718 51.8321 144.879 51.8234C145.049 51.8147 145.218 51.8147 145.38 51.8147H145.804V51.7972ZM139.882 50.8035V57.6115H140.959V50.8035H139.882ZM140.416 48.1187C140.196 48.1187 140.009 48.2058 139.856 48.3627C139.704 48.5196 139.619 48.7201 139.619 48.9467C139.619 49.1734 139.704 49.3652 139.856 49.5308C140.009 49.6877 140.196 49.7749 140.416 49.7749C140.637 49.7749 140.824 49.6877 140.985 49.5308C141.138 49.3739 141.222 49.1734 141.222 48.9467C141.222 48.7201 141.146 48.5196 140.985 48.3627C140.824 48.1971 140.637 48.1187 140.416 48.1187ZM137.71 58.6401H138.737V56.5481H137.345V50.7948H136.268V56.5481H132.823V50.7948H131.746V57.6028H137.702V58.6401H137.71ZM128.963 57.6115H130.041V50.8035H128.963V53.4012H125.502V50.8035H124.424V57.6115H125.502V54.4559H128.963V57.6115ZM123.041 54.4036V54.2729C123.033 53.4274 122.821 52.6254 122.312 51.9629C121.625 51.0737 120.708 50.6466 119.597 50.6466C118.52 50.6466 117.629 51.065 116.967 51.9367C116.449 52.6079 116.195 53.375 116.195 54.2293C116.195 55.162 116.517 55.9814 117.111 56.6788C117.773 57.4633 118.664 57.7684 119.656 57.7684C120.098 57.7684 120.547 57.7074 120.963 57.5418C121.353 57.3936 121.701 57.167 122.006 56.8793C122.346 56.5568 122.609 56.1645 122.821 55.7374L122.88 55.624L121.964 55.1272L121.905 55.2318C121.726 55.5456 121.497 55.8856 121.234 56.1209C121.014 56.3127 120.759 56.4522 120.488 56.5568C120.199 56.6614 119.894 56.7224 119.58 56.7224C118.952 56.7224 118.409 56.5044 117.977 56.0337C117.578 55.6153 117.374 55.1097 117.315 54.5344L117.298 54.3949H123.041V54.4036ZM121.845 53.4099H117.408L117.468 53.2443C117.603 52.8869 117.79 52.5469 118.07 52.2941C118.511 51.8931 119.02 51.7101 119.606 51.7101C119.962 51.7101 120.31 51.7885 120.641 51.9454C120.946 52.0936 121.217 52.2854 121.43 52.5556C121.591 52.7648 121.701 53.0002 121.786 53.253L121.845 53.4099ZM115.66 51.806V50.8035H112.174V57.6115H113.251V51.806H115.66ZM109.374 57.6115H110.451V50.8035H109.374V51.7362L109.17 51.5357C108.958 51.3178 108.712 51.1348 108.449 50.9953C107.991 50.7512 107.491 50.6379 106.973 50.6379C106.031 50.6379 105.225 50.9953 104.564 51.6752C103.902 52.3638 103.562 53.2094 103.562 54.177C103.562 55.162 103.885 56.0076 104.555 56.7137C105.208 57.4023 106.014 57.7597 106.956 57.7597C107.465 57.7597 107.957 57.6551 108.407 57.4285C108.687 57.289 108.941 57.106 109.179 56.888L109.382 56.705V57.6115H109.374ZM107.032 51.7188C107.694 51.7188 108.263 51.9541 108.729 52.4423C109.204 52.9392 109.416 53.5494 109.416 54.238C109.416 54.6826 109.323 55.1185 109.111 55.5107C108.899 55.8943 108.602 56.182 108.237 56.3999C107.864 56.6178 107.457 56.7311 107.032 56.7311C106.608 56.7311 106.218 56.6178 105.853 56.3999C105.48 56.1732 105.191 55.8594 104.979 55.4759C104.767 55.0923 104.648 54.6739 104.648 54.2293C104.648 53.7847 104.759 53.3663 104.971 52.974C105.183 52.5905 105.471 52.2767 105.845 52.0587C106.209 51.8234 106.608 51.7188 107.032 51.7188ZM97.8614 57.6115H98.9388V50.8035H97.8614V51.7362L97.6578 51.5357C97.4457 51.3178 97.1996 51.1348 96.9366 50.9953C96.4785 50.7512 95.9779 50.6379 95.4604 50.6379C94.5187 50.6379 93.7128 50.9953 93.051 51.6752C92.3893 52.3638 92.0499 53.2094 92.0499 54.177C92.0499 55.162 92.3723 56.0076 93.0425 56.7137C93.6958 57.4023 94.5017 57.7597 95.4434 57.7597C95.9525 57.7597 96.4446 57.6551 96.9027 57.4285C97.1826 57.289 97.4371 57.106 97.6747 56.888L97.8783 56.705V57.6115H97.8614ZM95.5283 51.7188C96.19 51.7188 96.7585 51.9541 97.2251 52.4423C97.7002 52.9392 97.9123 53.5494 97.9123 54.238C97.9123 54.6826 97.819 55.1185 97.6069 55.5107C97.3948 55.8943 97.1063 56.182 96.733 56.3999C96.3597 56.6178 95.9525 56.7311 95.5283 56.7311C95.1041 56.7311 94.7138 56.6178 94.349 56.3999C93.9757 56.1732 93.6873 55.8594 93.4752 55.4759C93.2631 55.0923 93.1443 54.6739 93.1443 54.2293C93.1443 53.7847 93.2546 53.3663 93.4667 52.974C93.6788 52.5905 93.9673 52.2767 94.3405 52.0587C94.6969 51.8234 95.0956 51.7188 95.5283 51.7188ZM89.6914 57.6115H90.7689V50.8035H89.6914V53.4012H86.23V50.8035H85.1525V57.6115H86.23V54.4559H89.6914V57.6115ZM82.3868 57.6115H83.4642V50.8035H82.3868V53.6714H81.3178C81.0209 53.6714 80.5967 53.6365 80.3591 53.4273C80.2064 53.2966 80.147 52.9653 80.1216 52.7648C80.0961 52.5469 80.0877 52.329 80.0877 52.111V50.7948H79.0272V52.5644C79.0272 53.1222 79.1544 53.6801 79.5362 54.0986C79.9349 54.5344 80.5203 54.6565 81.0803 54.6565H82.3868V57.6115ZM72.7915 50.8035H71.7141V57.6115H71.9941L76.4565 52.9915V57.6115H77.534V50.8035H77.288L72.7915 55.4584V50.8035ZM70.5772 51.7972V50.8035H66.1317V51.7972H67.8115V57.6115H68.8889V51.7972H70.5772ZM65.436 52.3377L65.3682 52.2244C65.173 51.8931 64.9355 51.6055 64.6385 51.3788C64.3246 51.1435 63.9683 50.9691 63.6035 50.8471C63.1963 50.7076 62.7721 50.6466 62.3394 50.6466C61.6777 50.6466 61.0329 50.7948 60.4475 51.1173C59.8876 51.4312 59.438 51.867 59.1156 52.4336C58.7932 52.9915 58.632 53.6104 58.632 54.2642C58.632 55.2405 58.9798 56.0773 59.667 56.7573C60.3881 57.4721 61.2789 57.7771 62.2715 57.7771C62.8993 57.7771 63.5187 57.6639 64.0871 57.3762C64.6131 57.1147 65.0458 56.7311 65.3682 56.2343L65.4445 56.1209L64.5876 55.5368L64.5113 55.6328C63.9429 56.3563 63.2132 56.7311 62.3139 56.7311C61.8473 56.7311 61.3977 56.6352 60.9905 56.3999C60.6002 56.182 60.2863 55.8681 60.0658 55.4759C59.8452 55.0836 59.7264 54.6565 59.7264 54.2032C59.7264 53.5058 59.9724 52.9217 60.456 52.4336C60.9735 51.9193 61.6013 51.7014 62.3055 51.7014C63.2132 51.7014 63.9598 52.0413 64.5113 52.791L64.5791 52.8869L65.436 52.3377ZM52.6339 50.8035H51.5564V57.6115H51.8364L56.2989 52.9915V57.6115H57.3763V50.8035H57.1303L52.6339 55.4584V50.8035ZM44.4639 50.8035H43.3949V60H44.4724V56.705L44.676 56.888C44.9051 57.106 45.1596 57.289 45.4395 57.4285C45.8977 57.6638 46.3897 57.7684 46.8903 57.7684C47.832 57.7684 48.638 57.4111 49.2912 56.7224C49.9615 56.0163 50.2838 55.1707 50.2838 54.1857C50.2838 53.2094 49.9445 52.3726 49.2827 51.6839C48.621 50.9953 47.8151 50.6466 46.8649 50.6466C46.3473 50.6466 45.8552 50.7512 45.3971 51.004C45.1341 51.1435 44.8881 51.3353 44.676 51.5445L44.4724 51.7449V50.8035H44.4639ZM46.8055 51.7188C47.2297 51.7188 47.6284 51.8234 48.0017 52.05C48.375 52.2679 48.6634 52.5818 48.8755 52.9654C49.0876 53.3576 49.1979 53.776 49.1979 54.2206C49.1979 54.6652 49.0791 55.0836 48.867 55.4671C48.6549 55.8594 48.3665 56.1732 47.9932 56.3912C47.6284 56.6091 47.2382 56.7224 46.814 56.7224C46.3813 56.7224 45.974 56.6091 45.6007 56.3912C45.2274 56.1732 44.9305 55.8855 44.7269 55.502C44.5148 55.1097 44.4215 54.6826 44.4215 54.2293C44.4215 53.5319 44.6336 52.9304 45.1087 52.4336C45.5753 51.9541 46.1437 51.7188 46.8055 51.7188ZM37.1932 50.8035H36.0564L38.7458 56.9403L37.4392 60H38.5931L42.5041 50.8035H41.3503L39.2972 55.624L37.1932 50.8035ZM35.1062 51.7972V50.8035H30.6606V51.7972H32.3404V57.6115H33.4179V51.7972H35.1062Z" fill="#231F20"/>
</svg>

<svg width="147" height="60" fill="none" xmlns="http://www.w3.org/2000/svg"><path fill-rule="evenodd" clip-rule="evenodd" d="M12.598 5.126c.806.54 1.638 1.064 2.46 1.578-.05.2-.143.383-.059.514.153.166.382.018.662.079.187.043 1.128 1.02 1.315 1.185.424-.07.484-.096.518-.453.025-.27.034-.558.042-.828.721-.175 1.79-.366 2.596-.515.382-.07 2.469-.496 2.58-.488.27.009 1.467.767 1.552 1.177.195.907.297 1.874.483 2.79.79-.149 1.001-.288 1.205-1.151l.772-3.112c.263-.968.102-1.09.543-1.247A32.106 32.106 0 0031.95 2.38c.764-.558.916-.784.908-1.098-.06-.34-.127-.532-.484-.619-.178-.044-.39-.052-.602-.078-.433-.053-.764-.218-1.17-.2-.951.025-1.392.53-2.495.958l-2.494.967C25.35 2.363 14.108 0 13.973 0c-.323-.008-.424.096-.662.34-.085.105-.17.201-.229.323.348.235 4.946 2.075 5.735 2.406.22.087 1.476.933 1.637 1.133-.322.13-1.12.514-1.45.663-.764.296-.84.462-1.375-.027a8.57 8.57 0 00-.526-.453c-.984-.767-1.069-.854-1.892-.61l.416 1.604c-.662-.026-1.705-.706-2.452-.645-.246.017-.407.2-.577.392zm119.962 6.791l-11.164 29.716h-3.275l13.201-35.147h2.486L147 41.633h-3.275L132.56 11.917zM99.371 25.611h-6.507v16.022h-3.08V6.486h3.08v15.97h6.44l10.774-15.97h3.758L102.027 23.99l13.209 17.643h-3.877L99.371 25.611zM60.337 38.469H83.55v3.164H60.337V38.47zM81.81 22.5v3.111H60.337V22.5H81.81zm1.45-16.014v3.156H60.338V6.486h22.924zM35.352 28.549v13.084h-3.028V25.385h12.42c4.59 0 8.22-2.973 8.22-7.872 0-4.995-3.529-7.924-8.22-7.924h-12.42V6.477h12.42c6.303 0 11.436 4.333 11.436 11.036 0 6.738-5.099 11.036-11.436 11.036h-9.392zM13.65 22.377c4.039.95 10.495 2.668 11.827 7.314a8.44 8.44 0 01.297 2.301c0 2.406-.95 4.777-2.57 6.503-2.503 2.676-6.168 3.513-9.664 3.513h-2.078l1.493-3.164h.594c4.182 0 9.162-1.761 9.162-6.86 0-.829-.203-1.605-.636-2.31-1.671-2.712-6.252-3.61-9.095-4.237-1.739-.384-3.478-.82-5.14-1.447C4.317 22.656.992 20.372.992 16.11c0-5.518 4.14-9.066 9.188-9.816l.297-.043 3.945 3.024-2.138.018C8.238 9.319 4.02 11.41 4.02 16.11c0 .697.162 1.36.51 1.961 1.543 2.763 6.328 3.652 9.12 4.306zM3.13 32.846c.628 2.18 2.308 3.775 4.26 4.743l.653.322-1.324 2.816-.653-.314C3.36 39.114 1.094 36.778.204 33.805L0 33.117l2.918-1.003.213.732z" fill="#F58220"/><path fill-rule="evenodd" clip-rule="evenodd" d="M129.701 28.383v-3.112h5.727v3.112h-5.727z" fill="#F58220"/><path fill-rule="evenodd" clip-rule="evenodd" d="M145.804 57.611h1.077v-6.807h-2.07c-.526 0-1.035.139-1.434.514-.407.375-.56.889-.56 1.438 0 .48.153.907.484 1.255.246.253.543.427.874.523l.161.044-1.943 3.033h1.196l1.833-2.92h.382v2.92zm0-5.814v1.9h-.883a2.935 2.935 0 01-.483-.052c-.161-.035-.289-.148-.39-.279-.136-.165-.179-.366-.179-.575 0-.2.026-.427.136-.593a.719.719 0 01.365-.296c.153-.061.348-.07.509-.079.17-.008.339-.008.501-.008h.424v-.018zm-5.922-.993v6.807h1.077v-6.807h-1.077zm.534-2.685a.761.761 0 00-.56.244.84.84 0 000 1.168.76.76 0 00.56.244.793.793 0 00.569-.244.82.82 0 00.237-.584.788.788 0 00-.237-.584.76.76 0 00-.569-.244zM137.71 58.64h1.027v-2.092h-1.392v-5.753h-1.077v5.753h-3.445v-5.753h-1.077v6.808h5.956v1.037h.008zm-8.747-1.029h1.078v-6.807h-1.078V53.4h-3.461v-2.598h-1.078v6.809h1.078v-3.156h3.461v3.155zm-5.922-3.207v-.131c-.008-.846-.22-1.648-.729-2.31-.687-.89-1.604-1.316-2.715-1.316-1.077 0-1.968.418-2.63 1.29a3.654 3.654 0 00-.772 2.292c0 .933.322 1.752.916 2.45.662.784 1.553 1.09 2.545 1.09a3.53 3.53 0 001.307-.227 3.14 3.14 0 001.043-.663c.34-.322.603-.715.815-1.142l.059-.113-.916-.497-.059.105c-.179.314-.408.654-.671.889-.22.192-.475.331-.746.436a2.664 2.664 0 01-.908.165c-.628 0-1.171-.218-1.603-.688-.399-.419-.603-.924-.662-1.5l-.017-.14h5.743v.01zm-1.196-.994h-4.437l.06-.166c.135-.357.322-.697.602-.95.441-.4.95-.584 1.536-.584.356 0 .704.078 1.035.235a2.2 2.2 0 01.789.61c.161.21.271.445.356.698l.059.157zm-6.185-1.604v-1.002h-3.486v6.807h1.077v-5.805h2.409zm-6.286 5.806h1.077v-6.809h-1.077v.933l-.204-.2a2.917 2.917 0 00-.721-.54 3.106 3.106 0 00-1.476-.358c-.942 0-1.748.357-2.409 1.037a3.505 3.505 0 00-1.002 2.502c0 .985.323 1.83.993 2.537.653.688 1.459 1.046 2.401 1.046.509 0 1.001-.105 1.451-.331.28-.14.534-.323.772-.541l.203-.183v.907h-.008zm-2.342-5.893c.662 0 1.231.235 1.697.723.475.497.687 1.107.687 1.796 0 .445-.093.88-.305 1.273a2.342 2.342 0 01-.874.889c-.373.218-.78.331-1.205.331-.424 0-.814-.113-1.179-.331a2.442 2.442 0 01-.874-.924 2.556 2.556 0 01-.008-2.502c.212-.383.5-.697.874-.915a2.14 2.14 0 011.187-.34zm-9.17 5.892h1.077v-6.807H97.86v.932l-.203-.2a2.92 2.92 0 00-.721-.54 3.108 3.108 0 00-1.477-.358c-.941 0-1.747.357-2.409 1.037a3.506 3.506 0 00-1.001 2.502c0 .985.322 1.83.993 2.537.653.688 1.459 1.046 2.4 1.046.51 0 1.002-.105 1.46-.331.28-.14.534-.323.772-.541l.203-.183v.907h-.017zm-2.334-5.892c.662 0 1.23.235 1.697.723.475.497.687 1.107.687 1.796 0 .445-.093.88-.305 1.273-.212.383-.5.671-.874.889-.373.218-.78.331-1.205.331-.424 0-.814-.113-1.179-.331a2.44 2.44 0 01-.874-.924 2.554 2.554 0 01-.008-2.502c.212-.383.5-.697.874-.915.356-.236.755-.34 1.187-.34zm-5.837 5.892h1.078v-6.807H89.69V53.4h-3.46v-2.598h-1.078v6.809h1.078v-3.156h3.461v3.155zm-7.304 0h1.077v-6.807h-1.077v2.867h-1.07c-.296 0-.72-.035-.958-.244-.153-.13-.212-.462-.237-.662a5.614 5.614 0 01-.034-.654v-1.316h-1.06v1.77c0 .557.126 1.115.508 1.534.399.435.984.558 1.544.558h1.307v2.955zm-9.596-6.807h-1.077v6.807h.28l4.463-4.62v4.62h1.077v-6.807h-.246l-4.496 4.654v-4.654zm-2.214.993v-.993h-4.445v.993h1.68v5.815h1.077v-5.815h1.688zm-5.141.54l-.068-.113a2.887 2.887 0 00-.73-.845 3.878 3.878 0 00-2.3-.732c-.66 0-1.305.148-1.89.47-.56.314-1.01.75-1.332 1.317a3.617 3.617 0 00-.484 1.83c0 .976.348 1.813 1.035 2.493.721.715 1.612 1.02 2.605 1.02.627 0 1.247-.113 1.815-.4a3.214 3.214 0 001.281-1.143l.077-.113-.857-.584-.077.096c-.568.723-1.298 1.098-2.197 1.098-.467 0-.916-.096-1.324-.331a2.387 2.387 0 01-.924-.924 2.57 2.57 0 01-.34-1.273c0-.697.246-1.281.73-1.77.517-.514 1.145-.732 1.85-.732.907 0 1.654.34 2.205 1.09l.068.096.857-.55zm-12.802-1.534h-1.078v6.809h.28l4.463-4.62v4.62h1.077v-6.809h-.246l-4.496 4.655v-4.654zm-8.17 0h-1.07V60h1.078v-3.295l.204.183c.23.218.484.401.764.54.458.236.95.34 1.45.34.942 0 1.748-.357 2.401-1.046.67-.706.993-1.551.993-2.536a3.49 3.49 0 00-1.001-2.502c-.662-.689-1.468-1.037-2.418-1.037-.518 0-1.01.104-1.468.357-.263.14-.509.331-.721.54l-.204.2v-.94h-.008zm2.342.916c.424 0 .822.104 1.196.331.373.218.661.532.873.915a2.554 2.554 0 01-.009 2.502 2.32 2.32 0 01-.873.924 2.257 2.257 0 01-1.179.331c-.433 0-.84-.113-1.213-.33a2.23 2.23 0 01-.874-.89 2.631 2.631 0 01-.305-1.273c0-.697.212-1.299.687-1.795a2.28 2.28 0 011.697-.715zm-9.613-.916h-1.137l2.69 6.137L37.439 60h1.154l3.911-9.197H41.35l-2.053 4.821-2.104-4.82zm-2.087.994v-.993h-4.445v.993h1.68v5.815h1.077v-5.815h1.688z" fill="#231F20"/></svg>
